X:1
T: Arniston House
C:
R:Jig
Q:180
K:Em
M:6/8
L:1/16
|:E2e2e2 e4B2|d4B2 A2F2D2|E2e2e2 e4B2|e2f2g2 g2f2e2|
E2e2e2 e4B2|d4B2 A2F2D2|G6 A2G2A2|1B2G2E2 E6:|2B2G2E2 E4c'2|
b4e2 e2f2g2|f2e2d2 a2f2d2|b2a2b2 e3fga|b2c'2a2 b2g2e2|
b2a2b2 e2f2g2|f2e2d2 a2g2f2|g2a2b2 a2g2f2|b2g2e2 e4c'2|
b4e2 e2f2g2|f2e2d2 a2f2d2|b2a2b2 e3fga|b2c'2a2 b2g2e2|
B2e2B2 G2B2G2|A2d2A2 F2G2A2|G2A2B2 F2G2A2|B2G2E2 E6||
